svgs/regular/signal-bars-slash.svg

<svg xmlns="http://www.w3.org/2000/svg" viewBox="0 0 640 512"><!-- Font Awesome Pro 6.0.0-alpha2 by @fontawesome - https://fontawesome.com License - https://fontawesome.com/license (Commercial License) --><path d="M415.999 464H383.999V397.203L335.999 359.586V480C335.999 497.672 350.328 512 367.999 512H431.999C449.673 512 463.999 497.672 463.999 480V459.906L415.999 422.285V464ZM183.999 288V480C183.999 497.672 198.328 512 215.999 512H279.999C297.673 512 311.999 497.672 311.999 480V340.773L206.331 257.953C193.468 262.102 183.999 273.758 183.999 288ZM231.999 304H263.999V464H231.999V304ZM127.999 384H63.999C46.328 384 31.999 398.328 31.999 416V480C31.999 497.672 46.328 512 63.999 512H127.999C145.673 512 159.999 497.672 159.999 480V416C159.999 398.328 145.673 384 127.999 384ZM111.999 464H79.999V432H111.999V464ZM630.812 469.109L615.999 457.5V32C615.999 14.328 601.673 0 583.999 0H519.999C502.328 0 487.999 14.328 487.999 32V357.176L463.999 338.367V160C463.999 142.328 449.673 128 431.999 128H367.999C350.328 128 335.999 142.328 335.999 160V238.043L38.812 5.113C28.343 -3.059 13.312 -1.246 5.109 9.191C-3.063 19.629 -1.235 34.723 9.187 42.895L601.187 506.891C605.593 510.328 610.796 512 615.984 512C623.109 512 630.156 508.844 634.89 502.812C643.062 492.375 641.234 477.281 630.812 469.109ZM415.999 300.742L383.999 275.664V176H415.999V300.742ZM567.999 419.879L535.999 394.797V48H567.999V419.879Z"/></svg>

<svg xmlns="http://www.w3.org/2000/svg" viewBox="0 0 640 512"><!--! Font Awesome Pro 6.0.0-alpha3 by @fontawesome - https://fontawesome.com License - https://fontawesome.com/license (Commercial License) --><path d="M416 464h-32v-66.8l-48-37.62V480c0 17.67 14.33 32 32 32h64c17.67 0 32-14.33 32-32v-20.09L416 422.3V464zM184 288v192c0 17.67 14.33 32 32 32h64c17.67 0 32-14.33 32-32v-139.2L206.3 257.1C193.5 262.1 184 273.8 184 288zM232 304h32v160h-32V304zM128 384H64c-17.67 0-32 14.33-32 32v64c0 17.67 14.33 32 32 32H128c17.67 0 32-14.33 32-32v-64C160 398.3 145.7 384 128 384zM112 464h-32v-32h32V464zM630.8 469.1L616 457.5V32c0-17.67-14.33-32-32-32h-64c-17.67 0-32 14.33-32 32v325.2l-24-18.81V160c0-17.67-14.33-32-32-32h-64c-17.67 0-32 14.33-32 32v78.04L38.81 5.111C28.34-3.061 13.32-1.249 5.12 9.189C-3.052 19.63-1.234 34.72 9.187 42.89l591.1 463.1C605.6 510.3 610.8 512 615.1 512c7.125 0 14.16-3.161 18.89-9.193C643.1 492.4 641.2 477.3 630.8 469.1zM416 300.7L384 275.7V176h32V300.7zM568 419.9l-32-25.08V48h32V419.9z"/></svg>
